X:294
T: Humors of Shannon
N: O'Farrell's Pocket Companion v.3 (Sky ed. p.132)
N: "Irish"
M: 6/8
L: 1/8
R: jig
Q: 320
K: G
A| G2E FED| G2B AGF| EFE E2F| G2E FED|
G2B AFA| DED D2 :|
c| BdB cBA| Bcd AGF| EFE E2c| BdB cBA| Bcd AGF|
DED D2B| dGB dAF| BGd AGF| EFE E2d|
B3 ABc | dcd AFA| DED D2 :|
